svg/level_down.svg

<svg xmlns="http://www.w3.org/2000/svg" viewBox="0 0 32 32" enable-background="new 0 0 32 32"><path d="M 5 5 L 5 7 L 20 7 L 20 24.0625 L 15.71875 19.78125 L 14.28125 21.21875 L 20.28125 27.21875 L 21 27.90625 L 21.71875 27.21875 L 27.71875 21.21875 L 26.28125 19.78125 L 22 24.0625 L 22 6 L 22 5 L 21 5 L 5 5 z" color="#000" overflow="visible" enable-background="accumulate"/></svg>

<svg xmlns="http://www.w3.org/2000/svg" viewBox="0 0 32 32"><path d="M5 5v2h15v17.063l-4.28-4.282-1.44 1.44 6 6 .72.686.72-.687 6-6-1.44-1.44L22 24.063V5H5z"/></svg>
